assets/img/braze_icons/image-user-up.svg

<svg fill="none" height="24" viewBox="0 0 24 24" width="24" xmlns="http://www.w3.org/2000/svg"><g fill="#801ed7"><path clip-rule="evenodd" d="m6.7587 1h5.2413c.5523 0 1 .44772 1 1 0 .55229-.4477 1-1 1h-5.2c-.85658 0-1.43887.00078-1.88896.03755-.43842.03582-.66262.10075-.81902.18044-.37632.19174-.68229.49771-.87403.87403-.07969.1564-.14462.3806-.18044.81902-.03677.45009-.03755 1.03238-.03755 1.88896v10.1996c.83529-.6275 1.87374-.9996 2.9998-.9996h7.5579c.4088 0 .6871-.0001.9326.0241 2.3736.2339 4.2516 2.1117 4.4856 4.4854.0135.1373.0195.2848.0221.4598.0309-.0022.0612-.0044.091-.0069.4384-.0358.6626-.1007.819-.1804.3763-.1917.6823-.4977.874-.874.0797-.1564.1446-.3806.1804-.819.0368-.4501.0376-1.0324.0376-1.889v-5.2c0-.5523.4477-1 1-1s1 .4477 1 1v5.2413c0 .805 0 1.4693-.0442 2.0105-.0459.5621-.1445 1.0788-.3918 1.5642-.3835.7526-.9954 1.3645-1.748 1.748-.4854.2473-1.0021.3459-1.5642.3918-.5412.0442-1.2055.0442-2.0105.0442h-10.48262c-.80496 0-1.46931 0-2.0105-.0442-.5621-.0459-1.07881-.1445-1.56414-.3918-.75265-.3835-1.36457-.9954-1.74806-1.748-.2473-.4854-.34586-1.0021-.39179-1.5642-.044212-.5412-.044202-1.2055-.04419-2.0105v-10.4826c-.000012-.80496-.000022-1.46933.04419-2.01052.04593-.5621.14449-1.07881.39179-1.56414.38349-.75265.99541-1.36457 1.74806-1.74806.48533-.2473 1.00204-.34586 1.56414-.39179.54119-.044212 1.20556-.044202 2.01052-.04419z" fill-rule="evenodd"/><path clip-rule="evenodd" d="m10 4.5c-2.76142 0-5 2.23858-5 5 0 2.7614 2.23858 5 5 5 2.7614 0 5-2.2386 5-5 0-2.76142-2.2386-5-5-5z" fill-rule="evenodd"/><path d="m19.7071 1.29289c-.1875-.18753-.4419-.29289-.7071-.29289s-.5196.10536-.7071.29289l-3 3c-.3905.39053-.3905 1.02369 0 1.41422.3905.39052 1.0237.39052 1.4142 0l1.2929-1.2929v3.58579c0 .55228.4477 1 1 1s1-.44772 1-1v-3.58579l1.2929 1.2929c.3905.39052 1.0237.39052 1.4142 0 .3905-.39053.3905-1.02369 0-1.41422z"/></g></svg>

<svg width="24" height="24" viewBox="0 0 24 24" fill="none" xmlns="http://www.w3.org/2000/svg">
<path fill-rule="evenodd" clip-rule="evenodd" d="M6.7587 1H12C12.5523 1 13 1.44772 13 2C13 2.55229 12.5523 3 12 3H6.8C5.94342 3 5.36113 3.00078 4.91104 3.03755C4.47262 3.07337 4.24842 3.1383 4.09202 3.21799C3.7157 3.40973 3.40973 3.7157 3.21799 4.09202C3.1383 4.24842 3.07337 4.47262 3.03755 4.91104C3.00078 5.36113 3 5.94342 3 6.8V16.9996C3.83529 16.3721 4.87374 16 5.9998 16L13.5577 16C13.9665 16 14.2448 15.9999 14.4903 16.0241C16.8639 16.258 18.7419 18.1358 18.9759 20.5095C18.9894 20.6468 18.9954 20.7943 18.998 20.9693C19.0289 20.9671 19.0592 20.9649 19.089 20.9624C19.5274 20.9266 19.7516 20.8617 19.908 20.782C20.2843 20.5903 20.5903 20.2843 20.782 19.908C20.8617 19.7516 20.9266 19.5274 20.9624 19.089C20.9992 18.6389 21 18.0566 21 17.2V12C21 11.4477 21.4477 11 22 11C22.5523 11 23 11.4477 23 12V17.2413C23 18.0463 23 18.7106 22.9558 19.2518C22.9099 19.8139 22.8113 20.3306 22.564 20.816C22.1805 21.5686 21.5686 22.1805 20.816 22.564C20.3306 22.8113 19.8139 22.9099 19.2518 22.9558C18.7106 23 18.0463 23 17.2413 23H6.75868C5.95372 23 5.28937 23 4.74818 22.9558C4.18608 22.9099 3.66937 22.8113 3.18404 22.564C2.43139 22.1805 1.81947 21.5686 1.43598 20.816C1.18868 20.3306 1.09012 19.8139 1.04419 19.2518C0.999978 18.7106 0.999988 18.0463 1 17.2413V6.7587C0.999988 5.95374 0.999978 5.28937 1.04419 4.74818C1.09012 4.18608 1.18868 3.66937 1.43598 3.18404C1.81947 2.43139 2.43139 1.81947 3.18404 1.43598C3.66937 1.18868 4.18608 1.09012 4.74818 1.04419C5.28937 0.999978 5.95374 0.999988 6.7587 1Z" fill="#801ED7"/>
<path fill-rule="evenodd" clip-rule="evenodd" d="M10 4.5C7.23858 4.5 5 6.73858 5 9.5C5 12.2614 7.23858 14.5 10 14.5C12.7614 14.5 15 12.2614 15 9.5C15 6.73858 12.7614 4.5 10 4.5Z" fill="#801ED7"/>
<path d="M19.7071 1.29289C19.5196 1.10536 19.2652 1 19 1C18.7348 1 18.4804 1.10536 18.2929 1.29289L15.2929 4.29289C14.9024 4.68342 14.9024 5.31658 15.2929 5.70711C15.6834 6.09763 16.3166 6.09763 16.7071 5.70711L18 4.41421V8C18 8.55228 18.4477 9 19 9C19.5523 9 20 8.55228 20 8V4.41421L21.2929 5.70711C21.6834 6.09763 22.3166 6.09763 22.7071 5.70711C23.0976 5.31658 23.0976 4.68342 22.7071 4.29289L19.7071 1.29289Z" fill="#801ED7"/>
</svg>
